packages/icons/src/svg/sharing-user.svg

<svg xmlns="http://www.w3.org/2000/svg" viewBox="0 0 16 16">
    <path d="M14.356504,10.7050861 C13.257504,9.49608606 11.387504,9.40608606 10.177504,10.5040861 L6.07350397,8.38208606 C6.07950397,8.30008606 6.09750397,8.22408606 6.09750397,8.14008606 C6.09750397,8.05708606 6.07950397,7.98008606 6.07350397,7.89908606 L9.18950397,6.28708606 C9.88950397,7.17508606 10.961504,7.75608606 12.180504,7.75608606 C14.290504,7.75608606 16.000504,6.04608606 16.000504,3.93608606 C16.000504,1.82708606 14.290504,0.11608606 12.180504,0.11608606 C10.070504,0.11608606 8.36050397,1.82708606 8.36050397,3.93608606 C8.36050397,3.98308606 8.37250397,4.02708606 8.37450397,4.07308606 L5.05650397,5.78808606 C3.91950397,4.73208606 2.15950397,4.73208606 1.02250397,5.78808606 C-0.234496035,6.96208606 -0.347496035,8.91608606 0.766503965,10.2260861 C0.796503965,10.2630861 0.828503965,10.2990861 0.860503965,10.3340861 C1.97650397,11.5360861 3.85450397,11.6070861 5.05650397,10.4920861 L9.16150397,12.6160861 C9.15450397,12.6960861 9.13650397,12.7730861 9.13650397,12.8560861 C9.13250397,13.6110861 9.39550397,14.3440861 9.87950397,14.9230861 C9.91050397,14.9600861 9.94050397,14.9960861 9.97250397,15.0310861 C11.071504,16.2400861 12.941504,16.3300861 14.151504,15.2310861 C15.414504,14.0740861 15.545504,12.1290861 14.449504,10.8120861 C14.419504,10.7760861 14.388504,10.7400861 14.356504,10.7050861"/>
    <path fill="#66BDFF" d="M15.235904,3.93608606 C15.235904,5.62408606 13.867904,6.99208606 12.179904,6.99208606 C10.491904,6.99208606 9.12390397,5.62408606 9.12390397,3.93608606 C9.12390397,2.24908606 10.491904,0.88008606 12.179904,0.88008606 C13.867904,0.88008606 15.235904,2.24908606 15.235904,3.93608606"/>
</svg>

<svg xmlns="http://www.w3.org/2000/svg" viewBox="0 0 16 16">
	<path d="M14.357 10.705a2.96 2.96 0 0 0-4.18-.2L6.075 8.381c.006-.082.024-.158.024-.242 0-.083-.018-.16-.024-.24L9.19 6.286a3.8 3.8 0 0 0 2.99 1.47 3.82 3.82 0 1 0-3.82-3.82c0 .046.013.09.015.136L5.057 5.788a2.964 2.964 0 0 0-4.034 0 3.219 3.219 0 0 0-.162 4.546 2.97 2.97 0 0 0 4.196.158l4.105 2.124c-.007.08-.025.157-.025.24a3.197 3.197 0 0 0 .743 2.067 2.958 2.958 0 0 0 4.272.308 3.209 3.209 0 0 0 .205-4.526"/>
	<path fill="#66BDFF" d="M15.236 3.936a3.056 3.056 0 1 1-6.112 0 3.056 3.056 0 0 1 6.112 0"/>
</svg>
